X:1
T:Sessions, LM
T:Sessions, LM
T:Luther Orlando Emerson, 1847
T:Public Domain Courtesy of the Cyber Hymnal™
C:Luther Orlando Emerson, 1847
Z:Public Domain
Z:Courtesy of the Cyber Hymnal™
%%score 1 ( 2 3 )
L:1/8
M:4/4
K:C
V:1 treble 
V:2 bass 
V:3 bass 
V:1
 [EG]4 [FA]2 [EG]2 | [Ec]8 | [EG]4 [FA]2 [EG]2 | ([Ec]3 [Ad] [Ge]4) | [Gd]4 [Gd]2 [Ge]2 | %5
 [Gd]4 [Gd]4 | [Ge]2 [Fd]2 !fermata![Ec]4 | [Ec]4 [Ec]2 [EA]2 | [Ec]4 [Gd]4 | [Gd]2 [Ge]2 [Gd]4 | %10
 [EG]4 [FA]2 [EG]2 | [Ec]3 [Fd] [Ge]4 | [Gd]4 ([Ge]2 [Fd]2) | [Ec]8 |] %14
V:2
 [C,C]4 [C,C]2 [C,C]2 | [C,G,]8 | [C,C]4 [C,C]2 [C,C]2 | [C,C]8 | [G,B,]4 [G,B,]2 [G,C]2 | %5
 [G,B,]4 [G,B,]4 | [G,C]2 G,2 !fermata![C,G,]4 | A,4 A,2 [A,C]2 | A,4 [G,B,]4 | %9
 [G,B,]2 [G,C]2 [G,B,]4 | [C,C]4 [C,C]2 [C,C]2 | [C,C]8 | [G,B,]4 ([G,C]2 G,2) | [C,G,]8 |] %14
V:3
 x8 | x8 | x8 | x8 | x8 | x8 | x2 G,2 x4 | A,4 A,2 x2 | A,4 x4 | x8 | x8 | x8 | x6 G,2 | x8 |] %14

